X:1
T:Harvington, 12.12.12.12
T:Harvington, 12.12.12.12
T:A. E. Kettle, before 1895
T:Public Domain Courtesy of the Cyber Hymnal™
C:A. E. Kettle, before 1895
Z:Public Domain
Z:Courtesy of the Cyber Hymnal™
%%score ( 1 2 ) ( 3 4 )
L:1/8
Q:1/4=115
M:4/4
K:Bb
V:1 treble 
V:2 treble 
V:3 bass 
V:4 bass 
V:1
 [DF]2 | [DF]2 [FB]2 [EB]2 [EA]2 | [DB]6 [DF]2 | [Fd]2 [^Fd]2 [Gd]2 [Gc]2 | [Fc]6 [Fc]2 | %5
 [Fd]2 [Fc]2 [C=E]2 [CF]2 | [FA]2 [=EG]2 [DF]2 [Fd]2 | [Fc]4 [=EG]4 | F6 [DF]2 | %9
 [EG]2 [EG]2 [Ge]2 [Ge]2 | [^Fd]6 [Ac]2 | [GB]2 [GB]2 [FB]2 [=EB]2 | [FA]6 [DF]2 | %13
 [DF]2 [Fd]2 [Ec]2 [EA]2 | [DB]2 [CA]2 [B,G]2 [EG]2 | [DF]4 [EA]4 | [DB]6 |] %17
V:2
 x2 | x8 | x8 | x8 | x8 | x8 | x8 | x8 | F6 x2 | x8 | x8 | x8 | x8 | x8 | x8 | x8 | x6 |] %17
V:3
 [B,,B,]2 | [B,,B,]2 [B,D]2 [F,C]2 [F,C]2 | [B,,B,]6 [B,,B,]2 | B,2 [A,C]2 [G,B,]2 [=E,B,]2 | %4
 [F,A,]6 [F,A,]2 | B,2 [A,C]2 [G,B,]2 [F,A,]2 | [C,C]2 [^C,B,]2 [D,A,]2 [B,,B,]2 | %7
 [C,A,]4 [C,B,]4 | [F,A,]6 [B,,B,]2 | [E,B,]2 [E,B,]2 [C,C]2 [C,C]2 | [D,A,]6 [^F,D]2 | %11
 [G,D]2 [G,D]2 [G,_D]2 [G,C]2 | [F,C]6 [B,,B,]2 | [B,,B,]2 [B,,B,]2 [F,A,]2 [F,C]2 | %14
 [G,B,]2 [D,^F,]2 [E,G,]2 [E,B,]2 | [F,B,]4 [F,,C]4 | [B,,B,]6 |] %17
V:4
 x2 | x8 | x8 | B,2 x6 | x8 | B,2 x6 | x8 | x8 | x8 | x8 | x8 | x8 | x8 | x8 | x8 | x8 | x6 |] %17

